X:1
T:Daar is de lente, daar is de zon
C:Jan De Wilde
Z:All Rights Reserved
L:1/8
M:4/4
K:G
V:1 treble nm=" " snm=" "
V:1
"G" BcB"D"A- A D3 |"G" BcB"D"A- A- A2 B |"G" BGB"C"c- c c2 c |"F" AAA"G"B- B G2 D | %4
w: Daar is de len- _ te|daar is de zon _ _ bij-|na maar ik denk _ dat ze|wel- dra zal ko- * men de|
"G" BcB"D"A- AD D2 |"G" BcB"D"A- A2 BB |"G" B2 G"C"c- c2 B2 |"D" A4"G" G2 z2 |] %8
w: fal- lus im- pu- _ di- cus|staat al in bloei _ en de|blaad- jes krij- _ gen|bo- men.|

